assets/v1/icons/editorconfig.svg

<!-- Copyright 2000-2021 JetBrains s.r.o. Use of this source code is governed by the Apache 2.0 license that can be found in the LICENSE file. -->
<svg xmlns="http://www.w3.org/2000/svg" width="16" height="16" viewBox="0 0 16 16">
  <path fill="#9AA7B0" fill-opacity=".8" fill-rule="evenodd" d="M12.7078144,8.94092644 L14.1860171,10.0014962 C13.9015285,10.8814083 13.4345167,11.6792367 12.8296171,12.3503459 L11.1720587,11.6025852 C10.7002906,12.0182974 10.1462196,12.3427961 9.53742767,12.5484995 L9.35682478,14.3581758 C8.91920787,14.4511061 8.46531382,14.5 8,14.5 C7.53468618,14.5 7.08079213,14.4511061 6.64317522,14.3581758 L6.46257231,12.5484994 C5.85378047,12.3427959 5.29970962,12.0182972 4.82794166,11.6025851 L3.1703829,12.3503459 C2.5654833,11.6792367 2.0984715,10.8814083 1.8139829,10.0014962 L3.29218604,8.94092614 C3.23171292,8.63665953 3.20000005,8.32203335 3.20000005,8.00000024 C3.20000005,7.67796698 3.23171295,7.36334066 3.29218612,7.05907392 L1.8139829,5.99850385 C2.0984715,5.11859166 2.5654833,4.32076327 3.1703829,3.64965409 L4.82794202,4.39741509 C5.29970989,3.98170311 5.85378059,3.65720451 6.46257226,3.45150114 L6.64317522,1.64182422 C7.08079213,1.54889386 7.53468618,1.5 8,1.5 C8.46531382,1.5 8.91920787,1.54889386 9.35682478,1.64182422 L9.53742772,3.45150097 C10.1462195,3.65720431 10.7002903,3.98170292 11.1720583,4.39741495 L12.8296171,3.64965409 C13.4345167,4.32076327 13.9015285,5.11859166 14.1860171,5.99850385 L12.7078143,7.05907362 C12.7682875,7.36334046 12.8000004,7.67796687 12.8000004,8.00000024 C12.8000004,8.32203346 12.7682875,8.63665973 12.7078144,8.94092644 Z M7.99999976,10.3003956 C9.27025466,10.3003956 10.2999997,9.27056196 10.2999997,8.00019773 C10.2999997,6.72983349 9.27025466,5.69999981 7.99999976,5.69999981 C6.72974486,5.69999981 5.69999981,6.72983349 5.69999981,8.00019773 C5.69999981,9.27056196 6.72974486,10.3003956 7.99999976,10.3003956 Z"/>
</svg>

<svg xmlns="http://www.w3.org/2000/svg" width="16" height="16" viewBox="0 0 16 16"><path fill="#9AA7B0" fill-opacity=".8" fill-rule="evenodd" d="m12.708 8.94 1.478 1.061a6.5 6.5 0 0 1-1.356 2.35l-1.658-.748a4.8 4.8 0 0 1-1.635.945l-.18 1.81a6.5 6.5 0 0 1-2.714 0l-.18-1.81a4.8 4.8 0 0 1-1.635-.945l-1.658.747a6.5 6.5 0 0 1-1.356-2.349l1.478-1.06a4.8 4.8 0 0 1 0-1.882L1.814 6A6.5 6.5 0 0 1 3.17 3.65l1.658.748a4.8 4.8 0 0 1 1.635-.945l.18-1.81a6.5 6.5 0 0 1 2.714 0l.18 1.81c.61.205 1.163.53 1.635.945l1.658-.747A6.5 6.5 0 0 1 14.186 6l-1.478 1.06a4.8 4.8 0 0 1 0 1.882M8 10.3a2.3 2.3 0 1 0 0-4.6 2.3 2.3 0 0 0 0 4.6"/></svg>
